X:1
T:Title
%%score ( 1 2 ) { 3 | 4 }
L:1/8
Q:1/4=93
M:6/8
K:Ab
V:1 treble nm="Grand Piano, Soprano"
V:2 treble 
V:3 bass nm="Choir Pad, Somewhere Tonight"
V:4 bass 
V:1
 [CE] [CE]2 [CE] [DF]2 | [DF] [CE]2- [CE] [CA]2- | [CA][CA][DG]- [DG]/[DF]/ [DG]2- | %3
w: By~Daniel~Brink~Towner * * *|||
 [DG][EB][EA]- [EA]/[EG]/ [EA]2- | [EA][DF][DF] [DF][FA][EG] | [DF] [DF]2 [CE] [CE]2- | %6
w: |||
 [CE][EG][EG] [EG][EG][EA] | [DB] [DB]2 [CA] [CA]2 | [CE] [DF]2 [DF][DF][EG] | %9
w: |||
 [FA] [EA]2 [EA] [CE]2 | [EA] [EG]2 [EG][EG][EA] | [DB] [DB]2 [CA] [CA]2 | [DF] [CE]2- [CE] E2- | %13
w: ||||
 [DE] [CE]2- [CE]3- | [CE] [Ec]2- [Ec][Ec][DB] | [CA] [DG]2- [DG]3- | [DG] [Bd]2- [Bd][Bd][Ac] | %17
w: ||||
 [Bd] [GB]2- [GB]3- | [GB] [Ac]2- [Ac][Ac][Gd] | [_Ge] e2 d [Fc]2 | [FB] [EA]2- [EA] [Ec]2 | %21
w: ||||
 [DB] [CA]2- [CA]3- | [CA]3 z3 |] %23
w: ||
V:2
 x6 | x6 | x6 | x6 | x6 | x6 | x6 | x6 | x6 | x6 | x6 | x6 | z3 z B,2 | x6 | x6 | x6 | x6 | x6 | %18
 x6 | z F2- F/ z/ z z | x6 | x6 | x6 |] %23
V:3
 A, A,2 A, A,2 | A, A,2- A, E,2- | E,E,B,- B,/B,/ B,2- | B,[K:treble]DC- C/C/ C2- | %4
 C[K:bass]A,A, A,DD | A, A,2 A, A,2- | A,[K:treble]DD DDC | E E2 E E2 | A, A,2 A,A,A, | %9
 A,[K:treble] C2 C A,2 | C D2 DDC | E E2 E E2 | A, A,2- A, G,2- | G, A,2- A,3- | A,3 z3 | %15
 z B,B, B, B,2- | B,3 z3 | z[K:treble] EE E E2- | E E2- EEE | A, A,2- A, A,2 | D C2- C A,2 | %21
 G, A,2- A,3- | A,3 z3 |] %23
V:4
 A,, A,,2 A,, A,,2 | A,, A,,2- A,, A,,2- | A,,2 E,- E,/E,/ E,2- | E,A,,A,,- A,,/A,,/ A,,2- | %4
 A,,D,D, D,D,D, | D, A,,2 A,, A,,2- | A,,E,E, E,E,E, | E, A,,2 A,, A,,2 | A,, D,2 D,D,D, | %9
 D, A,,2 A,, A,,2 | A,, E,2 E,E,E, | E, A,,2 A,, A,,2 | D, E,2- E, E,2- | E, A,,2- A,,3- | %14
 A,,3 z3 | z E,E, E, E,2- | E,3 z3 | z E,E, E, E,2- | E, A,,2- A,,A,,B,, | C, D,2- D, D,2 | %20
 D, E,2- E, E,2 | E, A,,2- A,,3- | A,,3 z3 |] %23

